www/assets/icons/add_to_photos.svg

<svg xmlns="http://www.w3.org/2000/svg" width="24" height="24" viewBox="0 0 24 24" fill='currentColor'><path d="M4 6H2v14c0 1.1.9 2 2 2h14v-2H4zm16-4H8c-1.1 0-2 .9-2 2v12c0 1.1.9 2 2 2h12c1.1 0 2-.9 2-2V4c0-1.1-.9-2-2-2m-1 9h-4v4h-2v-4H9V9h4V5h2v4h4z"/></svg>

<svg width="24" height="24" viewBox="0 0 24 24" xmlns="http://www.w3.org/2000/svg" fill='currentColor'><path d="M4 6H2V20C2 21.1 2.9 22 4 22H18V20H4V6ZM20 2H8C6.9 2 6 2.9 6 4V16C6 17.1 6.9 18 8 18H20C21.1 18 22 17.1 22 16V4C22 2.9 21.1 2 20 2ZM19 11H15V15H13V11H9V9H13V5H15V9H19V11Z"/></svg>
